!!!!SEGMENT: pl-gd--ee-1638--005-018_marenzio-luca--il-primo-libro-de-madrigali-spirituali-a-cinque-voci-ma-las-io-sento.krn
!!!cenid: 15xx:971
!!!COM: Marenzio, Luca
!!!COM-rismid: pe30003955
!!!CDT: ~1553-1599/08/22
!!!CNT: Italian
!!!GTL: Il Primo libro de madrigali spirituali a cinque voci
!!!OTL: Ma las’io sento
!!!OMV: 018
!!!PDT: 1588
!!!AGN:
!!!SMS-siglum: PL-GD
!!!SMS-shelfmark: Ee 1638
!!!SMS-shelfwork: 005-018 G
!!!SMS-variant:
!!!SMS-altvar:
!!!NIFC-rismid: 990039269
!!!URL-scan: https://repozytorium.nifc.pl/islandora/object/pl-gd%3A57883/datastream/PDF/view
!!!ONB-nifc: UWAGA: zbiór na stronach: Canto: s. 666-677, Alto: s. 514-525, Tenore: s. 362-373, Bassus: s. 210-221, Quinto: s. 58-69. Uwaga: utwory podzielone wg tytułów w spisach treści dostępnych na końcu każdej księgi głosowej.
!!!AIN: 1 alto 1 bass  1 soprn 1 tenor  1 vox
!!!key: d
**kern	**text	**kern	**text	**kern	**text	**kern	**text	**kern	**text
*part5	*part5	*part4	*part4	*part3	*part3	*part2	*part2	*part1	*part1
*staff5	*staff5	*staff4	*staff4	*staff3	*staff3	*staff2	*staff2	*staff1	*staff1
*I"QVINTO	*	*I"BASSO	*	*I"TENORE	*	*I"ALTO	*	*I"CANTO	*
*I'V	*	*I'B	*	*I'T	*	*I'A	*	*I'S	*
*ICvox	*	*ICvox	*	*ICvox	*	*ICvox	*	*ICvox	*
*Ivox	*	*Ibass 	*	*Itenor 	*	*Ialto	*	*Isoprn	*
*clefC3	*	*clefC4	*	*clefC3	*	*clefC2	*	*clefG2	*
*k[b-]	*	*k[b-]	*	*k[b-]	*	*k[b-]	*	*k[b-]	*
*d:	*	*d:	*	*d:	*	*d:	*	*d:	*
*M2/1	*	*M2/1	*	*M2/1	*	*M2/1	*	*M2/1	*
*met(C)	*	*met(C)	*	*met(C)	*	*met(C)	*	*met(C)	*
=1-	=1-	=1-	=1-	=1-	=1-	=1-	=1-	=1-	=1-
!LO:TX:a:t=Quarta Parte	!	!LO:TX:a:t=Quarta Parte	!	!	!	!LO:TX:a:t=Quarta Parte	!	!	!
!	!	!	!	!	!	!LO:TX:t=P:problem:podwójnie zapisany znak przykluczowy: B- b-	!	!	!
1r	.	0r	.	1r	.	2r	.	1cc	MA
.	.	.	.	.	.	2.a\	MA	.	.
2r	.	.	.	1f	MA	.	.	2dd\	laſ-
.	.	.	.	.	.	2b-\	laſ-	.	.
2.F/	MA	.	.	.	.	.	.	2cc\	-s'io
.	.	.	.	.	.	4a\	-s'io	.	.
=2-	=2-	=2-	=2-	=2-	=2-	=2-	=2-	=2-	=2-
.	.	1r	.	2d\	laſ-	4.a\	ſen-	8f/	ſen-
.	.	.	.	.	.	.	.	8g/	.
2f\	laſ-	.	.	.	.	.	.	8a/	.
.	.	.	.	.	.	16g\	.	8b-/	.
.	.	.	.	.	.	16f\	.	.	.
.	.	.	.	2c/	-s'io	2g\	.	2cc\	.
4e\	-s'io	.	.	.	.	.	.	.	.
1f	ſen-	1F	MA	8F/	ſen-	2a\	-to	1cc	-to
.	.	.	.	8G/	.	.	.	.	.
.	.	.	.	8A/	.	.	.	.	.
.	.	.	.	8B-/	.	.	.	.	.
.	.	.	.	1c/	.	4r	.	.	.
*	*	*	*	*	*	*	*ij	*	*
.	.	.	.	.	.	4a\	Ma	.	.
=3-	=3-	=3-	=3-	=3-	=3-	=3-	=3-	=3-	=3-
4e\	-to	2A/	laſ-	.	.	4a\	las-	2r	.
*	*ij	*	*	*	*	*	*	*	*
4c/	Ma	.	.	.	.	4e/	-s'io	.	.
!	!	!	!	!LO:N:acc=#	!	!	!	!	!
2d\	las-	2G/	-s'io	2Bn/	-to	2g\	sen-	4.gg\	che'l
.	.	.	.	.	.	.	.	8ff\	pun-
4c/	-s'io	8C/	ſen-	2r	.	1g	-to	4ee\	-gen-
.	.	8D/	.	.	.	.	.	.	.
2c/	sen-	8E/	.	.	.	.	.	4ee\	-te
.	.	8F/	.	.	.	.	.	.	.
.	.	2G/	.	4.g\	che'l	.	.	2dd\	ſtra-
!LO:N:acc=#	!	!	!	!	!	!	!	!	!
4Bn/	.	.	.	.	.	.	.	.	.
.	.	.	.	8f\	pun-	.	.	.	.
*	*	*	*	*	*	*	*Xij	*	*
=4-	=4-	=4-	=4-	=4-	=4-	=4-	=4-	=4-	=4-
1c	-to	2A/	-to	4e\	-gen-	4.cc\	che'l	1.cc	-le
.	.	.	.	2f\	-te	.	.	.	.
.	.	.	.	.	.	8b-\	pu(n)-	.	.
.	.	4.c\	che'l	.	.	4a\	-gen-	.	.
.	.	.	.	4.e\	ſtra-	4g\	-te	.	.
.	.	8B-\	pun-	.	.	.	.	.	.
2r	.	4A/	-gen-	.	.	8a\	ſtra-	.	.
!	!	!	!	!	!	!LO:SIC:v:t=custos cc	!	!	!
.	.	.	.	8d\	.	8b-\	.	.	.
!	!	!LO:SIC:v:t=custos G	!	!	!	!LO:LB:g=original	!	!	!
.	.	4A/	-te	8e\	.	8cc\	.	.	.
.	.	.	.	8f\	.	8a\	.	.	.
!	!	!LO:LB:g=original	!	!LO:SIC:v:t=custos d	!	!	!	!	!
*	*Xij	*	*	*	*	*	*	*	*
4.d\	che'l	2G/	ſtra-	4g\	.	2b-\	.	2r	.
!	!	!	!	!LO:LB:g=original	!	!	!	!	!
.	.	.	.	4d\	-le	.	.	.	.
!LO:SIC:v:t=custos f	!	!	!	!	!	!	!	!	!
8e\	pun-	.	.	.	.	.	.	.	.
!LO:LB:g=original	!	!	!	!	!	!	!	!	!
=5-	=5-	=5-	=5-	=5-	=5-	=5-	=5-	=5-	=5-
4f\	-gen-	2F/	-le	2r	.	4.a\	-le	2r	.
4f\	-te	.	.	.	.	.	.	.	.
.	.	.	.	.	.	16g\	.	.	.
.	.	.	.	.	.	16f\	.	.	.
*	*	*	*ij	*	*ij	*	*	*	*
2.g\	ſtra-	1c	Ma	4.c/	che'l	2e/	.	4.gg\	che'l
!	!	!	!	!	!	!	!	!LO:SIC:v:t=custos ee	!
.	.	.	.	8d\	pun-	.	.	8ff\	pun-
!	!	!	!	!	!	!	!	!LO:LB:g=original	!
.	.	.	.	4e\	-gen-	1r	.	4ee\	-gen-
4a\	-le	.	.	4A/	-te	.	.	4ee\	-te
4r	.	2d\	las-	2.f\	stra-	.	.	4.a/	ſtra-
4f\	Ma	.	.	.	.	.	.	.	.
.	.	.	.	.	.	.	.	8b-/	.
=6-	=6-	=6-	=6-	=6-	=6-	=6-	=6-	=6-	=6-
4a\	laſ-	2c\	-s'io	.	.	4.cc\	che'l	2cc\	.
4g\	-s'io	.	.	4e\	-le	.	.	.	.
.	.	.	.	.	.	8b-\	pun-	.	.
2f\	ſen-	8F/	sen-	2r	.	4a\	-gen-	2cc\	-le
.	.	8G/	.	.	.	.	.	.	.
.	.	8A/	.	.	.	4a\	-te	.	.
.	.	8B-\	.	.	.	.	.	.	.
2e\	-to	2c\	.	4.c/	Che'l	2g\	ſtra-	4r	.
*	*	*	*	*	*	*	*	*	*ij
.	.	.	.	.	.	.	.	2cc\	che'l
.	.	.	.	8B-y/	pun-	.	.	.	.
4.f\	che'l	2F/	-to	4A/	-gen-	2f\	-le	.	.
.	.	.	.	4a\	-te	.	.	4dd\	pun-
8e\	pun-	.	.	.	.	.	.	.	.
=7-	=7-	=7-	=7-	=7-	=7-	=7-	=7-	=7-	=7-
!	!	!	!	!	!	!	!	!LO:N:acc=#	!
4d\	-gen-	4.G/	che'l	1g	stra-	1r	.	2bn/	-gen-
4d\	-te	.	.	.	.	.	.	.	.
.	.	8F/	pun-	.	.	.	.	.	.
2.c/	ſtra-	4E/	-gen-	.	.	.	.	2cc\	-te
.	.	4E/	-te	.	.	.	.	.	.
.	.	1D	stra-	1f	-le	2r	.	1dd	stra-
!LO:N:acc=#	!	!	!	!	!	!	!	!	!
8Bn/	.	.	.	.	.	.	.	.	.
8A/	.	.	.	.	.	.	.	.	.
!LO:N:acc=#	!	!	!	!	!	!	!	!	!
2Bn/	.	.	.	.	.	2d/	Che	.	.
=8-	=8-	=8-	=8-	=8-	=8-	=8-	=8-	=8-	=8-
1c	-le	2C/	-le	2r	.	1e	per	1g	-le
*	*	*	*Xij	*	*Xij	*	*	*	*Xij
.	.	4c\	Che	4e\	Che	.	.	.	.
.	.	4c\	per	4e\	per	.	.	.	.
!	!	!LO:SIC:v:t=custos A	!	!	!	!	!	!	!
1r	.	2B-\	gl'oc-	2d\	gl'oc-	2f\	gl'oc-	2r	.
!	!	!LO:LB:g=original	!	!	!	!	!	!	!
.	.	2A/	-chi	2c/	-chi	2f\	-chi	2a/	Che
=9-	=9-	=9-	=9-	=9-	=9-	=9-	=9-	=9-	=9-
2r	.	1G	miei	1d	miei	1g	miei	1b-y	per
4g\	Che	.	.	.	.	.	.	.	.
!LO:SIC:v:t=custos f	!	!	!	!	!	!	!	!	!
4g\	per	.	.	.	.	.	.	.	.
!LO:LB:g=original	!	!	!	!	!	!	!	!	!
2f\	gl'oc-	1r	.	2r	.	1r	.	2cc\	gl'oc-
*	*	*	*	*	*ij	*	*	*	*
2e\	-chi	.	.	2A/	Che	.	.	2cc\	-chi
=10-	=10-	=10-	=10-	=10-	=10-	=10-	=10-	=10-	=10-
!	!	!	!	!LO:SIC:v:t=custos c	!	!	!	!	!
1d	miei	2r	.	1B-	per	2r	.	1dd	miei
*	*	*	*	*	*	*	*ij	*	*ij
.	.	4G/	Che	.	.	4b-\	Che	.	.
.	.	4G/	per	.	.	4b-\	per	.	.
!	!	!	!	!LO:LB:g=original	!	!	!	!	!
0r	.	2F/	gl'oc-	2c/	gl'oc-	2a\	gl'oc-	2r	.
.	.	2E/	-chi	2c/	-chi	1g\	-chi	4cc\	Che
.	.	.	.	.	.	.	.	4cc\	per
=11-	=11-	=11-	=11-	=11-	=11-	=11-	=11-	=11-	=11-
.	.	1D	miei	1d	miei	.	.	2b-/	gl'oc-
!	!	!	!	!	!	!LO:SIC:v:t=custos b	!	!LO:SIC:v:t=custos g	!
.	.	.	.	.	.	2f\	miei	2a/	-chi
*	*	*	*	*	*	*	*Xij	*	*
!	!	!	!	!	!	!LO:LB:g=original	!	!LO:LB:g=original	!
2r	.	4G/	ver-	2r	.	1b-	ver-	2g/	miei
.	.	4A/	.	.	.	.	.	.	.
*	*	*	*	*	*Xij	*	*	*	*Xij
4d\	ver-	4B-\	.	1f\	ver-	.	.	1dd\	ver-
4e\	.	4c\	.	.	.	.	.	.	.
=12-	=12-	=12-	=12-	=12-	=12-	=12-	=12-	=12-	=12-
4f\	.	2d\	.	.	.	1a	-ſa	.	.
4g\	.	.	.	.	.	.	.	.	.
2a\	.	2A/	-ſa a-	2e\	-ſa a-	.	.	2cc#X\	-ſa a-
*	*	*	*	*	*	*	*	*lig	*
2A/	-ſa a-	1F#X	-ma-	1a	-ma-	2r	.	1dd	-ma-
1d\	-ma-	.	.	.	.	2a\	a-	.	.
=13-	=13-	=13-	=13-	=13-	=13-	=13-	=13-	=13-	=13-
!	!	!	!	!	!	!LO:N:acc=#	!	!	!
.	.	0G	-ra	0g	-ra	2bn\	-ma-	1ee	.
2c/	-ra	.	.	.	.	2.cc\	-ra	.	.
*	*	*	*	*	*	*	*	*Xlig	*
2d\	piog-	.	.	.	.	.	.	2dd\	-ra
.	.	.	.	.	.	8b\	.	.	.
.	.	.	.	.	.	8a\	.	.	.
!	!	!	!	!	!	!LO:N:acc=#	!	!	!
2G/	-gia	.	.	.	.	2bn\	.	8gg\	piog-
.	.	.	.	.	.	.	.	8ff\	.
.	.	.	.	.	.	.	.	8ee\	.
.	.	.	.	.	.	.	.	8dd\	.
=14-	=14-	=14-	=14-	=14-	=14-	=14-	=14-	=14-	=14-
1r	.	8c\	piog-	2e\	piog-	4.cc\	piog-	1ccny	.
.	.	8B-\	.	.	.	.	.	.	.
.	.	8A/	.	.	.	.	.	.	.
!	!	!LO:SIC:v:t=custos F	!	!	!	!	!	!	!
.	.	8G/	.	.	.	8b-y\	.	.	.
!	!	!LO:LB:g=original	!	!	!	!	!	!	!
.	.	4Fny/	.	2f\	-gia	4a\	.	.	.
.	.	8E/	.	.	.	8g\	.	.	.
.	.	8D/	.	.	.	8f\	.	.	.
8g\	piog-	0C	.	4r	.	8e\	.	2cc\	-gia
8f\	.	.	.	.	.	8d/	.	.	.
8e\	.	.	.	4.c/	piog-	8c/	.	.	.
8d\	.	.	.	.	.	8d/	.	.	.
4c/	.	.	.	.	.	8e/	.	8gg\	piog-
.	.	.	.	8d\	.	8f\	.	8ff\	.
8B-y/	.	.	.	8e\	.	8g\	.	8ee\	.
8A/	.	.	.	8f\	.	8a\	.	8dd\	.
=15-	=15-	=15-	=15-	=15-	=15-	=15-	=15-	=15-	=15-
4G/	.	.	.	4g\	.	4e/	.	1cc	.
4F/	.	.	.	4a\	.	2f\	.	.	.
!LO:SIC:v:t=custos F	!	!	!	!	!	!	!	!	!
2G/	.	.	.	2g\	.	.	.	.	.
.	.	.	.	.	.	4e/	.	.	.
!LO:LB:g=original	!	!	!	!	!	!	!	!	!
2F/	-gia	1F	-gia	1a	-gia	2f\	-gia	2cc\	-gia
2f\	A	.	.	.	.	4r	.	4r	.
.	.	.	.	.	.	2a\	A	2cc\	A
=16-	=16-	=16-	=16-	=16-	=16-	=16-	=16-	=16-	=16-
2e-X\	for-	00r	.	0r	.	.	.	.	for-
.	.	.	.	.	.	2g\	for-	2b-/	-za
2d\	-za	.	.	.	.	.	.	.	.
!	!	!	!	!	!	!LO:SIC:v:t=custos e	!	!	!
.	.	.	.	.	.	2f\	-za	4a/	mi
1r	.	.	.	.	.	.	.	8a/	fa
.	.	.	.	.	.	.	.	8b-/	gir
!	!	!	!	!	!	!LO:LB:g=original	!	!	!
.	.	.	.	.	.	8e/	mi	8cc\	di
!	!	!	!	!	!	!	!	!LO:SIC:v:t=custos b	!
.	.	.	.	.	.	8f\	fa	8a/	boſ-
!	!	!	!	!	!	!	!	!LO:LB:g=original	!
.	.	.	.	.	.	8g\	gir	8b-/	-co
.	.	.	.	.	.	8e/	di	8cc\	in
.	.	.	.	.	.	8f\	boſ-	4dd\	boſ-
.	.	.	.	.	.	8g\	-co	.	.
=17-	=17-	=17-	=17-	=17-	=17-	=17-	=17-	=17-	=17-
2r	.	.	.	4r	.	2a\	in	1cc	-co
.	.	.	.	2f\	A	.	.	.	.
2c/	A	.	.	.	.	2g\	boſ-	.	.
.	.	.	.	2e-X\	for-	.	.	.	.
2B-/	for-	.	.	.	.	4g\	-co	2r	.
!	!	!	!	!	!	!	!	!	!
*	*	*	*	*	*	*	*ij	*	*
.	.	.	.	4d\	-za	2f\	A	.	.
!	!	!	!	!LO:SIC:v:t=custos a	!	!	!	!	!
4A/	-za	.	.	4r	.	.	.	4r	.
*	*	*	*	*	*ij	*	*	*	*ij
!	!	!	!	!LO:LB:g=original	!	!	!	!	!
8A/	mi	.	.	2a\	a	4e\	for-	2cc\	A
8B-/	fa	.	.	.	.	.	.	.	.
=18-	=18-	=18-	=18-	=18-	=18-	=18-	=18-	=18-	=18-
8c/	gir	0r	.	.	.	8e/	-za	.	.
8A/	di	.	.	.	.	8f\	mi	.	.
8B-/	boſ-	.	.	2g\	for-	8g\	fa	2b-/	for-
8c/	-co in	.	.	.	.	8e/	gir	.	.
2d\	boſ-	.	.	.	.	8d/	di	.	.
.	.	.	.	.	.	8e/	boſ-	.	.
.	.	.	.	2f\	-za	4f\	.	4a/	-za
2A/	-co	.	.	.	.	2c/	-co	8a/	mi
.	.	.	.	.	.	.	.	8b-/	fa
*	*	*	*	*	*Xij	*	*Xij	*	*
.	.	.	.	8eny\	mi	.	.	8cc\	gir
.	.	.	.	8f\	fa-	.	.	8a/	di
2r	.	.	.	8g\	-gir	2r	.	8b-/	bos-
.	.	.	.	8e\	di	.	.	8cc\	-co in
.	.	.	.	8f\	bo-	.	.	4dd\	bos-
.	.	.	.	8g\	-ſco in	.	.	.	.
=19-	=19-	=19-	=19-	=19-	=19-	=19-	=19-	=19-	=19-
4r	.	4r	.	2a\	boſ-	2r	.	2cc\	-co
4f\	Pre-	4F/	Pre-	.	.	.	.	.	.
1eny	-gã(n)-	1c	-gan-	2g\	-co	4r	.	4r	.
*	*	*	*	*	*	*	*	*	*Xij
.	.	.	.	.	.	4e/	Pre-	4cc\	Pre-
.	.	.	.	1r	.	2g\	-gan-	2cc\	-gan-
!	!	!	!	!	!	!LO:SIC:v:t=custos e	!	!	!
2d\	-do	2d\	-do	.	.	2f\	-do	2a/	-do
!	!	!	!	!	!	!LO:LB:g=original	!	!	!
=20-	=20-	=20-	=20-	=20-	=20-	=20-	=20-	=20-	=20-
4c/	lui	2A/	lui	4r	.	4e/	lui	4a/	lui
*	*ij	*	*	*	*	*	*ij	*	*ij
4f\	Pre-	.	.	4F/	Pre-	4a\	Pre-	4cc\	Pre-
!	!	!	!	!	!	!	!	!LO:SIC:v:t=custos a	!
1e	-gã(n)-	2r	.	1c	-gan-	1g	-gan-	1cc	-gan-
.	.	00r	.	.	.	.	.	.	.
!LO:SIC:v:t=custos c	!	!	!	!	!	!	!	!LO:LB:g=original	!
2d\	-do	.	.	2d\	-do	2f\	-do	2a/	-do
!LO:LB:g=original	!	!	!	!	!	!	!	!	!
*	*	*	*	*	*	*	*Xij	*	*
=21-	=21-	=21-	=21-	=21-	=21-	=21-	=21-	=21-	=21-
2c#X/	lui	.	.	2A/	lui	2e/	che	2a/	lui
*	*Xij	*	*	*	*	*	*	*	*Xij
4d\	che	.	.	4d\	che-	4f\	mi	4a/	che
2e\	mi	.	.	2c/	-mi	2g\	ri-	2cc\	mi
.	.	.	.	.	.	.	.	.	.
!	!	!	!	!LO:N:acc=#	!	!	!	!	!
4d\	ri-	.	.	4Bn/	ri-	4g\	-tie-	4dd\	ri-
4e\	-tie-	.	.	4c/	-tie-	4g\	-ne	4cc\	-tie-
2f\	-ne in	.	.	4F/	-ne in	4a\	in	4cc\	-ne in
=22-	=22-	=22-	=22-	=22-	=22-	=22-	=22-	=22-	=22-
!	!	!	!	!LO:SIC:v:t=custos F	!	!	!	!	!
.	.	.	.	1c	vi-	1g	vi-	1cc	vi-
8e\	vi-	.	.	.	.	.	.	.	.
8d\	.	.	.	.	.	.	.	.	.
2e\	.	.	.	.	.	.	.	.	.
!	!	!	!	!LO:LB:g=original	!	!	!	!	!
1f	-ta	2r	.	2F/	-ta	2a\	-ta	1cc	-ta
.	.	2F/	Che in-	2f\	Che i-	4r	.	.	.
.	.	.	.	.	.	4a\	Che i-	.	.
=23-	=23-	=23-	=23-	=23-	=23-	=23-	=23-	=23-	=23-
2r	.	2c\	-nan-	2e\	-nan-	2g\	-nan-	2r	.
4r	.	2d\	-zi	2d\	-zi	2f\	-zi	4r	.
4.B-/	m'in-	.	.	.	.	.	.	4.dd\	m'in-
.	.	1B-	tem-	2f\	tem-	2b-\	tem-	.	.
8cny/	-ter-	.	.	.	.	.	.	8ee\	-ter-
4d\	-rõ(m)-	.	.	.	.	.	.	4ff\	-rõ-
4G/	-pa il	.	.	2d\	-po	4b-\	-po	4b-/	-pa il
2B-/	cor-	.	.	.	.	4.f\	m'in-	2dd\	cor-
=24-	=24-	=24-	=24-	=24-	=24-	=24-	=24-	=24-	=24-
!	!	!LO:SIC:v:t=custos d	!	!	!	!	!	!	!
.	.	2F/	-po	4r	.	.	.	.	.
.	.	.	.	.	.	8g\	-ter-	.	.
4A/	-ſo	.	.	4.f\	m'in-	4a\	-rõ(m)-	4cc\	-ſo
!	!	!LO:LB:g=original	!	!	!	!	!	!	!
4r	.	4r	.	.	.	2d/	-pa	2r	.
.	.	.	.	8g\	-ter-	.	.	.	.
*	*ij	*	*	*	*	*	*	*	*ij
4.f\	m'in-	4.d\	m'in-	4a\	-rõ-	.	.	.	.
.	.	.	.	2d\	-pa il	2r	.	2r	.
8g\	-ter-	8e\	-ter-	.	.	.	.	.	.
4a\	-rõ(m)-	4f\	-rom-	.	.	.	.	.	.
4d\	-pa il	4B-\	-pa il	2f\	cor-	4r	.	4r	.
2f\	cor-	2d\	cor-	.	.	4.f\	m'in-	4.a/	m'in-
=25-	=25-	=25-	=25-	=25-	=25-	=25-	=25-	=25-	=25-
.	.	.	.	2a\	-ſo	.	.	.	.
!	!	!	!	!	!	!LO:SIC:v:t=custos a	!	!	!
.	.	.	.	.	.	8g\	-ter-	8b-/	-ter-
!LO:SIC:v:t=custos d	!	!	!	!	!	!LO:LB:g=original	!	!	!
4e\	-so	4A/	-ſo	.	.	4a\	-rõ(m)-	4cc\	-rõ-
!LO:LB:g=original	!	!	!	!	!	!	!	!	!
4r	.	4r	.	2r	.	2d/	-pa il	4f/	-pa il
*	*Xij	*	*	*	*	*	*	*	*
!	!	!	!	!	!	!	!	!LO:SIC:v:t=custos a	!
4.d\	m'in-	4.B-\	m'in-	.	.	.	.	2b-/	cor-
.	.	.	.	1r	.	4d/	cor-	.	.
8e\	-ter-	8c\	-ter-	.	.	.	.	.	.
!	!	!	!	!	!	!	!	!LO:LB:g=original	!
4f\	-rom-	4d\	-rom-	.	.	4d/	-ſo	4a/	-so
4B-/	-pa il	4G/	-pa il	.	.	4r	.	4r	.
*	*	*	*	*	*	*	*ij	*	*Xij
2d\	cor-	2B-\	cor-	.	.	4.f\	m'in-	4.dd\	m'in-
=26-	=26-	=26-	=26-	=26-	=26-	=26-	=26-	=26-	=26-
.	.	.	.	4r	.	.	.	.	.
.	.	.	.	.	.	8g\	-ter-	8ee\	-ter-
*	*	*	*	*	*ij	*	*	*	*
4c/	-ſo	4F/	-ſo	4.f\	m'in-	4a\	-rõ(m)-	4ff\	-rõ-
2r	.	2r	.	.	.	4d/	-pa il	4b-/	-pa il
.	.	.	.	8e\	-ter-	.	.	.	.
.	.	.	.	4d\	-rõ-	2f\	cor-	2dd\	cor-
2r	.	0r	.	2A/	-pa	.	.	.	.
.	.	.	.	.	.	4e/	-so	4cc\	-ſo
4r	.	.	.	4.B-y/	il	4r	.	4r	.
*	*ij	*	*	*	*	*	*	*	*ij
4.B-/	m'in-	.	.	.	.	4.d/	m'in-	4.ff\	m'in-
.	.	.	.	8c/	.	.	.	.	.
=27-	=27-	=27-	=27-	=27-	=27-	=27-	=27-	=27-	=27-
.	.	.	.	2d\	cor-	.	.	.	.
8c/	-ter-	.	.	.	.	8e/	-ter-	8ee\	-ter-
4d\	-rom-	.	.	.	.	4f\	-rõ(m)	2dd\	-rõ-
!	!	!	!	!LO:SIC:v:t=custos c	!	!	!	!	!
4G/	-pa il	.	.	2d\	-so	4B-/	pa il	.	.
2B-/	cor-	.	.	.	.	2d/	cor-	4dd\	-pa il
!	!	!	!	!LO:LB:g=original	!	!	!	!	!
.	.	1F	E	2r	.	.	.	2ff\	cor-
4A/	-so	.	.	.	.	4c/	-so	.	.
*	*	*	*	*	*Xij	*	*Xij	*	*
2r	.	.	.	1c\	E	4r	.	2cc\	-so
.	.	.	.	.	.	4f\	E	.	.
*	*Xij	*	*	*	*	*	*	*	*Xij
=28-	=28-	=28-	=28-	=28-	=28-	=28-	=28-	=28-	=28-
4r	.	2E/	mi	.	.	2g\	mi	2r	.
4c/	E	.	.	.	.	.	.	.	.
2A/	mi	2F/	ſoc-	1f	mi	2a\	ſoc-	2cc\	E
!	!	!	!	!	!	!	!	!LO:N:acc=#	!
2d\	ſoc-	0G	-cor-	.	.	0g	-cor-	2bn/	mi
1c\	-cor-	.	.	2e\	ſoc-	.	.	2cc\	ſoc-
=29-	=29-	=29-	=29-	=29-	=29-	=29-	=29-	=29-	=29-
.	.	.	.	1d	-co-	.	.	1dd	-co-
!LO:SIC:v:t=custos c	!	!	!	!	!	!	!	!	!
!LO:N:acc=#	!	!	!	!	!	!	!	!	!
2Bn/	-ra	.	.	.	.	.	.	.	.
!LO:LB:g=original	!	!	!	!	!	!	!	!	!
4r	.	0.C	-ra	1c	-ra	2g\	-ra	0ee	-ra
4c/	in	.	.	.	.	.	.	.	.
4.c/	si	.	.	.	.	4r	.	.	.
.	.	.	.	.	.	4g\	in	.	.
8d\	con-	.	.	.	.	.	.	.	.
=30-	=30-	=30-	=30-	=30-	=30-	=30-	=30-	=30-	=30-
4e\	-tra-	.	/E	4r	.	4.g\	si	.	.
4c/	-rio	.	.	4g\	in	.	.	.	.
!	!	!	!	!	!	!LO:SIC:v:t=custos e	!	!	!
.	.	.	.	.	.	8f\	con-	.	.
!	!	!	!	!	!	!LO:LB:g=original	!	!	!
8c/	ven-	.	.	4.g\	si	4e/	-tra-	.	.
8d\	.	.	.	.	.	.	.	.	.
8e\	.	.	.	.	.	4g\	-rio	.	.
8f\	.	.	.	8f\	con-	.	.	.	.
4g\	.	.	.	4e\	-tra-	8g\	ven-	4r	.
.	.	.	.	.	.	8f\	.	.	.
4c/	-to	.	.	4g\	-rio	8e/	.	4cc\	in
.	.	.	.	.	.	8d/	.	.	.
2r	.	.	.	8g\	ven-	2c/	.	4.cc\	si
.	.	.	.	8f\	.	.	.	.	.
.	.	.	.	8e\	.	.	.	.	.
.	.	.	.	8d\	.	.	.	8dd\	con-
=31-	=31-	=31-	=31-	=31-	=31-	=31-	=31-	=31-	=31-
2r	.	2r	.	2c/	.	1g	-to	4ee\	-tra-
.	.	.	.	.	.	.	.	4cc\	-rio
!	!	!LO:SIC:v:t=custos B	!	!	!	!	!	!	!
*	*	*	*ij	*	*	*	*	*	*
2e\	E	2c\	mi	2g\	-to	.	.	8cc\	ven-
.	.	.	.	.	.	.	.	8dd\	.
.	.	.	.	.	.	.	.	8ee\	.
.	.	.	.	.	.	.	.	8ff\	.
!	!	!LO:LB:g=original	!	!	!	!	!	!	!
!	!	!LO:N:acc=#	!	!	!	!	!	!	!
2d\	mi	2Bn\	ſoc-	0r	.	2g\	E	1gg	.
2e\	ſoc-	2c\	-cor-	.	.	1cc\	mi	.	.
=32-	=32-	=32-	=32-	=32-	=32-	=32-	=32-	=32-	=32-
2f#X\	-cor-	0d	-ra	.	.	.	.	1.dd	-to
2.g\	.	.	.	.	.	2b-\	ſoc-	.	.
.	.	.	.	4r	.	1a	-cor-	.	.
*	*	*	*	*	*ij	*	*	*	*ij
8f#\	.	.	.	4d\	in	.	.	.	.
8e\	.	.	.	.	.	.	.	.	.
2f#X\	.	.	.	4.d\	si	.	.	4r	.
.	.	.	.	.	.	.	.	4dd\	E
!	!	!	!	!LO:SIC:v:t=custos B	!	!	!	!	!
.	.	.	.	8c\	con-	.	.	.	.
*	*	*	*Xij	*	*	*	*	*	*
!	!	!	!	!LO:LB:g=original	!	!	!	!	!
=33-	=33-	=33-	=33-	=33-	=33-	=33-	=33-	=33-	=33-
2g\	-ra	1G	.	4B-/	-tra-	1b-	-ra	4.dd\	mi
.	.	.	.	4d\	-rio	.	.	.	.
.	.	.	.	.	.	.	.	8cc\	soc-
4r	.	.	.	8d\	ven-	.	.	4b-y/	-co-
.	.	.	.	8c/	.	.	.	.	.
!LO:SIC:v:t=custos d	!	!	!	!	!	!	!	!	!
4d\	in	.	.	8B-/	.	.	.	4dd\	-ra in
.	.	.	.	8A/	.	.	.	.	.
!LO:LB:g=original	!	!	!	!	!	!	!	!	!
4.d\	si	0r	.	2G/	.	2r	.	8dd\	si
.	.	.	.	.	.	.	.	8cc\	con-
.	.	.	.	.	.	.	.	4b-/	-tra-
8e\	con-	.	.	.	.	.	.	.	.
4fny\	-tra-	.	.	2d\	-to	4r	.	2a/	-rio
4d\	-rio	.	.	.	.	4a\	in	.	.
*	*	*	*	*	*Xij	*	*	*	*Xij
=34-	=34-	=34-	=34-	=34-	=34-	=34-	=34-	=34-	=34-
8d\	ven-	.	.	4r	.	4.a\	si	2r	.
8e\	.	.	.	.	.	.	.	.	.
8f\	.	.	.	4d\	in	.	.	.	.
8g\	.	.	.	.	.	8g\	con-	.	.
2a\	.	.	.	4.d\	si	4f\	-tra-	4r	.
.	.	.	.	.	.	4a\	-rio	4dd\	in
.	.	.	.	8e\	con-	.	.	.	.
1d	-to	2r	.	4f\	-tra-	8a\	ven-	4.dd\	si
.	.	.	.	.	.	8g\	.	.	.
.	.	.	.	4d\	-rio	8f\	.	.	.
.	.	.	.	.	.	8e\	.	8ee\	con-
!	!	!	!	!	!	!LO:SIC:v:t=custos e	!	!	!
.	.	2B-y\	E	8d\	ven-	2d/	.	4ff\	-tra-
.	.	.	.	8e\	.	.	.	.	.
.	.	.	.	8f\	.	.	.	4dd\	-rio
.	.	.	.	8g\	.	.	.	.	.
!	!	!	!	!	!	!LO:LB:g=original	!	!	!
=35-	=35-	=35-	=35-	=35-	=35-	=35-	=35-	=35-	=35-
2r	.	2A/	mi	2a\	.	4e/	-to	8cc\	ven-
.	.	.	.	.	.	.	.	8dd\	.
.	.	.	.	.	.	4cc\	E	8ee\	.
!	!	!	!	!	!	!	!	!LO:SIC:v:t=custos dd	!
.	.	.	.	.	.	.	.	8ff\	.
!	!	!	!	!	!	!	!	!LO:LB:g=original	!
2f\	E	2B-\	ſoc-	2d\	-to	1b-	mi	2dd\	.
2e\	mi	0c	-cor-	0r	.	.	.	1.cc	-to
1f\	ſoc-	.	.	.	.	2a\	ſoc-	.	.
=36-	=36-	=36-	=36-	=36-	=36-	=36-	=36-	=36-	=36-
.	.	.	.	.	.	1g	-cor-	.	.
2e\	-cor-	.	.	.	.	.	.	4r	.
*	*	*	*	*	*	*	*	*	*ij
.	.	.	.	.	.	.	.	4cc\	in
1f	-ra	1F	-ra	2r	.	0.a	-ra	4.cc\	si
.	.	.	.	.	.	.	.	8b-/	con-
.	.	.	.	4r	.	.	.	4a/	-tra-
!	!	!	!	!LO:SIC:v:t=custos A	!	!	!	!	!
*	*	*	*	*	*ij	*	*	*	*
.	.	.	.	4A/	in	.	.	4ff\	-rio
!	!	!	!	!LO:LB:g=original	!	!	!	!	!
=37-	=37-	=37-	=37-	=37-	=37-	=37-	=37-	=37-	=37-
1r	.	4r	.	4.A/	si	.	.	2ee\	ven-
.	.	4A/	in	.	.	.	.	.	.
.	.	.	.	8B-/	con-	.	.	.	.
.	.	4.A/	si	4c/	-tra-	.	.	2ee\	-to
.	.	.	.	4A/	.	.	.	.	.
.	.	8G/	con-	.	.	.	.	.	.
4r	.	4F/	-tra-	8A/	.	.	.	2r	.
.	.	.	.	8B-/	.	.	.	.	.
4a\	in	4A/	-rio	8c/	.	.	.	.	.
.	.	.	.	8d\	.	.	.	.	.
*	*	*	*	*	*	*	*	*	*Xij
4.a\	si	8A/	ven-	4e\	.	.	.	2cc\	in
.	.	8G/	.	.	.	.	.	.	.
.	.	8F/	.	4A/	-rio	.	.	.	.
8g\	cõ(n)-	8E/	.	.	.	.	.	.	.
*	*	*	*	*	*Xij	*	*	*	*
=38-	=38-	=38-	=38-	=38-	=38-	=38-	=38-	=38-	=38-
4f\	-tra-	0.D	.	4r	.	4r	.	4.dd\	si
4a\	-rio	.	.	4f\	in	4d/	in	.	.
.	.	.	.	.	.	.	.	8ee\	con-
8a\	ven-	.	.	4.a\	si	4.d/	si	4ff\	-tra-
8g\	.	.	.	.	.	.	.	.	.
8f\	.	.	.	.	.	.	.	4dd\	-rio
8e\	.	.	.	8g\	con-	8e/	con-	.	.
0d	.	.	.	4f\	-tra-	4f\	-tra-	8dd\	ven-
.	.	.	.	.	.	.	.	8ee\	.
.	.	.	.	4a\	-rio	4d/	-rio	8ff\	.
.	.	.	.	.	.	.	.	8gg\	.
.	.	.	.	8a\	ven-	8d/	ven-	4.aa\	.
.	.	.	.	8g\	.	8e/	.	.	.
.	.	.	.	8f\	.	8f\	.	.	.
.	.	.	.	8e\	.	8g\	.	8gg\	.
=39-	=39-	=39-	=39-	=39-	=39-	=39-	=39-	=39-	=39-
.	.	.	.	1d	.	1a	.	1ff	.
00c#X	-to.	00A	-to.	00e	-to.	00a	-to.	00ee	-to.
==	==	==	==	==	==	==	==	==	==
*-	*-	*-	*-	*-	*-	*-	*-	*-	*-
!!!system-decoration: [(s1,s2,s3,s4,s5)]
!!!ENC: Andrzej Gręziak
!!!END: 2022-06-30
!!!ENC: Natalia Wrzos
!!!END: 2022-07-16
